!!!OTL: Das alta Weib (197a), S. 426
!!!id: T0377
**kern
*clefG2
*k[f#c#g#d#]
*E:
{4b
=1
4b
4a
4g#
8f#
8f#
=2
4f#
4e
4e}
=3
{4e
=4
4cc#
4cc#
4cc#
4cc#
=5
2b}
4r
=6
{4b
=7
4ee
4b
4b
4b
=8
8dd#
8dd#
8dd#
8dd#
4dd#}
=9
{4cc#
=10
4b
4a
4g#
4f#
=11
2e}
4r
=12
{4b
=13
4b
4a
4g#
4f#
=14
8e
8e
8e
8e
4e}
=15
{4e
=16
4cc#
4cc#
4cc#
4cc#
=17
2b}
4r
=18
{4b
=19
4ee
4b
4b
4b
=20
8dd#
8dd#
8dd#
8dd#
4dd#}
=21
{4cc#
=22
4b
4a
4g#
4f#
=23
2e}
4r
==
*-
!!!minrhy: 8
!!!meters: 4/4 ]  ZZ[8
!!!cut: Das alta Weib (197a), S. 426
!!!reg: Luxemburg
!!!trd: Singendes Volk, Esch-Alzette, 1937 posth.
!!!rhy1: X_  X_X_X_XX  X_X_X_
!!!rhy2: X_  X_X_X_X_  X__0_
!!!key: T0377  08  E 4/4 ]  ZZ[8
!!!mod: HEPTATONIK IONISCH]  AMBITUS[8
!!!kad: 15711571
!!!akz: 5321_665_+1577_531_5311_665_+1577_531_
!!!fot: 'a__b__c__aw_aw_b__c__aw_
!!!for: 'a__b__bw_b__bw_b__bw_b__
!!!fok: '\__/__/__\__\__/__/__\__
!! PHRAS[AUFTAKTIG]
!!!fkt: Hochzeits-, Ehestandslied
!!!bem1: Tadler, hhh Nikolaus Schroeder, 26.2.1933;
!!!bem2: (197b)- Rodershausen, Lena Peters, 1930,
!!!bem3:  mitgeteilt, hhh Josef Bour (Lehrer)
!! THILL; Mathias
!! PR[28] 2K[4] 2G[24] 3K[0] 3G[8] 4A[4] 4Ü[0] 5A[0] 6K[0] 6G[0]
!! 7K[0] 7G[0] 8A[0] MEHR[0] SI[40] ABS[25] SR[28] SP[12]
!! ST[8] 2k[4] 2g[24] 3k[0] 3g[4] 4d[0] 4ü[0] 5d[0] 6k[0] 6g[0]
!! 7k[0] 7g[0] 8d[0] mehr[0] si[32] dm[+8] sr[28] sp[4]
!! 1F[86] 2F[14] 3F[0] 4F[0] LF[0] 2P[0] 3P[0] 4P[0] TRI[0] DF[2] AB[28]
!! TF[0] U3K[0] U3[0] U4[0] U4Ü[0] U5[4] U6K[0] U6[0] U7K[0] U7[0]
!! N1[19] N2K[0] N2[15] N3K[0] N3[31] N4[12] N4Ü[0] N5[15] N6K[0] N6[4]
!!!n7k: 0] N7[0] O1[0] O2K[0] O2[0] O3K[0] O3[0] HÖ[0
